public/img/old-svg/user.svg

<svg width="14" height="14" viewBox="0 0 14 14" fill="none" xmlns="http://www.w3.org/2000/svg">
<path d="M7.00114 0C5.00112 0 3.36621 1.63491 3.36621 3.63493C3.36621 5.63494 5.00112 7.26985 7.00114 7.26985C9.00115 7.26985 10.6361 5.63494 10.6361 3.63493C10.6361 1.63491 9.00115 0 7.00114 0Z" fill="white" fill-opacity="0.7"/>
<path d="M13.2393 10.1745C13.144 9.93641 13.0171 9.7142 12.8742 9.50784C12.144 8.42847 11.0171 7.71419 9.74725 7.53958C9.58853 7.52372 9.41393 7.55544 9.28693 7.65069C8.62026 8.14275 7.82662 8.39672 7.00121 8.39672C6.17579 8.39672 5.38215 8.14275 4.71548 7.65069C4.58849 7.55544 4.41388 7.50783 4.25516 7.53958C2.98532 7.71419 1.84247 8.42847 1.12819 9.50784C0.985338 9.7142 0.858342 9.9523 0.763125 10.1745C0.715516 10.2698 0.731376 10.3809 0.778984 10.4761C0.905981 10.6983 1.0647 10.9206 1.20755 11.111C1.42977 11.4126 1.66787 11.6825 1.93772 11.9364C2.15993 12.1586 2.4139 12.365 2.66789 12.5713C3.92184 13.5079 5.42979 13.9999 6.98535 13.9999C8.5409 13.9999 10.0488 13.5078 11.3028 12.5713C11.5568 12.3809 11.8107 12.1586 12.033 11.9364C12.2869 11.6825 12.5409 11.4126 12.7631 11.111C12.9219 10.9047 13.0647 10.6983 13.1917 10.4761C13.271 10.3809 13.2869 10.2697 13.2393 10.1745Z" fill="white" fill-opacity="0.7"/>
</svg>

<svg width="14" height="14" viewBox="0 0 14 14" fill="none" xmlns="http://www.w3.org/2000/svg"><path d="M7.001 0c-2 0-3.635 1.635-3.635 3.635 0 2 1.635 3.635 3.635 3.635 2 0 3.635-1.635 3.635-3.635 0-2-1.635-3.635-3.635-3.635zm6.239 10.175a3.39 3.39 0 00-.366-.667A4.518 4.518 0 009.747 7.54a.669.669 0 00-.46.11A3.824 3.824 0 017 8.398a3.827 3.827 0 01-2.286-.746.596.596 0 00-.46-.111 4.485 4.485 0 00-3.127 1.968c-.143.206-.27.444-.365.667a.338.338 0 00.016.301c.127.222.286.445.429.635.222.302.46.571.73.825.222.223.476.429.73.635A7.19 7.19 0 006.985 14a7.192 7.192 0 004.318-1.429c.254-.19.508-.412.73-.635a7.323 7.323 0 001.159-1.46c.079-.095.095-.206.047-.302z" fill="#fff" fill-opacity=".7"/></svg>
